icons/charging-pile-2-fill.svg

<svg xmlns="http://www.w3.org/2000/svg" width="24" height="24" fill="none"><g clip-path="url(#a)"><g><path fill="#121212" d="M20 11H19V7H20V4H22V7H23V11H22V18C22 18.7956 21.6839 19.5587 21.1213 20.1213C20.5587 20.6839 19.7956 21 19 21C18.2044 21 17.4413 20.6839 16.8787 20.1213C16.3161 19.5587 16 18.7956 16 18V14H14V19H15V21H2V19H3V4C3 3.73478 3.10536 3.48043 3.29289 3.29289C3.48043 3.10536 3.73478 3 4 3H13C13.2652 3 13.5196 3.10536 13.7071 3.29289C13.8946 3.48043 14 3.73478 14 4V12H16C16.5304 12 17.0391 12.2107 17.4142 12.5858C17.7893 12.9609 18 13.4696 18 14V18C18 18.2652 18.1054 18.5196 18.2929 18.7071C18.4804 18.8946 18.7348 19 19 19C19.2652 19 19.5196 18.8946 19.7071 18.7071C19.8946 18.5196 20 18.2652 20 18V11ZM9 11V7L5 13H8V17L12 11H9Z"/></g></g><defs><clipPath id="a"><rect width="24" height="24" fill="white"/></clipPath></defs></svg>

<svg width="24" height="24" fill="none" xmlns="http://www.w3.org/2000/svg"><g clip-path="url(#a)"><path d="M20 11h-1V7h1V4h2v3h1v4h-1v7a3 3 0 0 1-6 0v-4h-2v5h1v2H2v-2h1V4a1 1 0 0 1 1-1h9a1 1 0 0 1 1 1v8h2a2 2 0 0 1 2 2v4a1 1 0 0 0 2 0v-7ZM9 11V7l-4 6h3v4l4-6H9Z" /></g><defs><clipPath id="a"><path fill="#fff" d="M0 0h24v24H0z"/></clipPath></defs></svg>
